src/16/actions/object-group.svg

<svg xmlns="http://www.w3.org/2000/svg" width="16" height="16"><defs><style id="current-color-scheme" type="text/css"></style></defs><path d="M3 1c-1.108 0-2 .892-2 2v10c0 1.108.892 2 2 2h10c1.108 0 2-.892 2-2V3c0-1.108-.892-2-2-2H3zm3 3a2 2 0 1 1 0 4 2 2 0 0 1 0-4zm3 0h3v4H9V4zM5 9h2v3H5V9zm5.5 0l1.5 3H9l1.5-3z" fill="currentColor" color="#565656"/></svg>

<svg xmlns="http://www.w3.org/2000/svg" width="16" height="16" viewBox="0 0 16 16">
 <defs>
  <style id="current-color-scheme" type="text/css">
   .ColorScheme-Text { color:#565656; } .ColorScheme-Highlight { color:#5294e2; }
  </style>
 </defs>
 <path style="fill:currentColor" class="ColorScheme-Text" d="M 3 1 C 1.892 1 1 1.892 1 3 L 1 13 C 1 14.108 1.892 15 3 15 L 13 15 C 14.108 15 15 14.108 15 13 L 15 3 C 15 1.892 14.108 1 13 1 L 3 1 z M 6 4 C 7.1046 4 8 4.8954 8 6 C 8 7.1046 7.1046 8 6 8 C 4.8954 8 4 7.1046 4 6 C 4 4.8954 4.8954 4 6 4 z M 9 4 L 12 4 L 12 8 L 9 8 L 9 4 z M 5 9 L 7 9 L 7 12 L 5 12 L 5 9 z M 10.5 9 L 12 12 L 9 12 L 10.5 9 z"/>
</svg>
